X: 1
T: The Skylark
R: reel
M: 4/4
L: 1/8
K: Cmaj
|:A|G2 ge decA|GEE2 CEGc|AFF2 DEFD|EGG2 EGce|
gfef decA|GEE2 CEGc|AFF2 Dagf|egdf ecc:||
|:e| g2 ec Gcec|dedc BGG2|g2 eg agec|Addc defd |
|1(3efg eg f2 af|egdB cAAF|EGcG FAdc|Bdgf ecc:|
|2 egg2 faa2|gede cAAF|EGcG FAdc|Bagf ecc2||


Tune 632	Setting 28442

